X:173
T: Caledonian Laddie
N: O'Farrell's Pocket Companion v.2 (Sky ed. p.88)
M: C
L: 1/8
R: reel % ?
Q: 320
K: D
D|D3E {G}FEFA|{c}BABd e3f|dcBA BdAF|GB E2 EFGE|
D3E {G}FEFA|{c}BABd e3f|dcBA BdAG|FA D2 D3 :|
d/e/|f2 f2 gfed|cdec A2 Bc|d2 B2 Bcde|f2 f2 HB2 cd|
A3B AFEF|D2 d2 d2 cB|A3B BAGF|B2 E2 HE3 F|
D3E FDFA|d2 d2 f3D|E3F GEGB|e2 e2 Hg2 ef|
gfe^d ebe=d|cBce A2 Bc|d3F EFGA|F2 D2 D3 :|
